X: 21003
T: WATERS OF ELLE
O: French air.
Q: "Moderate with feeling."
%R: air, march
B: W. Hamilton "Universal Tune-Book" Vol. 2 Glasgow 1846 p.100 #3
S: http://s3-eu-west-1.amazonaws.com/itma.dl.printmaterial/book_pdfs/hamiltonvol2web.pdf
Z: 2016 John Chambers <jc:trillian.mit.edu>
M: C
L: 1/8
K: D
% - - - - - - - - - - - - - - - - - - - - - - - - -
[|\
d2 (cde) d3e | f>f (3(age) d2{d}c2 |\
d2 (3(cde) d2B2 | A>A (3(ABc) (e2dz) |\
e2f>f g3f | e>e (3(def) (f2e)z |\
f2e>e a2 (3(bag) | d>de>e (g2f2) |\
f2e>e a2 (3(age) | d>df>e (e2d)z |]
% - - - - - - - - - - - - - - - - - - - - - - - - -

%%sep 1 1 500
%%sep 1 1 500

